SF_Symbols/plus.svg

<?xml version="1.0" encoding="UTF-8"?>
<svg xmlns="http://www.w3.org/2000/svg" xmlns:xlink="http://www.w3.org/1999/xlink" width="24" height="24" viewBox="0 0 24 24" version="1.1">
<g id="surface1">
<path style=" stroke:none;fill-rule:nonzero;fill:rgb(100%,100%,100%);fill-opacity:1;" d="M 0.949219 12.617188 C 0.949219 12.945312 1.066406 13.226562 1.300781 13.460938 C 1.539062 13.691406 1.820312 13.808594 2.144531 13.808594 L 10.808594 13.808594 L 10.808594 22.472656 C 10.808594 22.792969 10.925781 23.070312 11.15625 23.304688 C 11.386719 23.542969 11.667969 23.664062 12 23.664062 C 12.332031 23.664062 12.613281 23.542969 12.84375 23.304688 C 13.085938 23.070312 13.207031 22.792969 13.207031 22.472656 L 13.207031 13.808594 L 21.855469 13.808594 C 22.179688 13.808594 22.457031 13.691406 22.6875 13.460938 C 22.929688 13.226562 23.050781 12.945312 23.050781 12.617188 C 23.050781 12.285156 22.929688 12.003906 22.6875 11.773438 C 22.457031 11.53125 22.179688 11.410156 21.855469 11.410156 L 13.207031 11.410156 L 13.207031 2.757812 C 13.207031 2.4375 13.085938 2.160156 12.84375 1.929688 C 12.613281 1.6875 12.332031 1.566406 12 1.566406 C 11.667969 1.566406 11.386719 1.6875 11.15625 1.929688 C 10.925781 2.160156 10.808594 2.4375 10.808594 2.757812 L 10.808594 11.410156 L 2.144531 11.410156 C 1.820312 11.410156 1.539062 11.53125 1.300781 11.773438 C 1.066406 12.003906 0.949219 12.285156 0.949219 12.617188 Z M 0.949219 12.617188 "/>
</g>
</svg>

<svg xmlns="http://www.w3.org/2000/svg" width="24" height="24"><path style="stroke:none;fill-rule:nonzero;fill:#fff;fill-opacity:1" d="M.95 12.617c0 .328.116.61.35.844.24.23.52.348.845.348h8.664v8.664c0 .32.117.597.347.832.23.238.512.36.844.36.332 0 .613-.122.844-.36.234-.215.363-.516.363-.832v-8.664h8.648c.325 0 .602-.118.832-.348.243-.234.364-.516.364-.844a1.114 1.114 0 0 0-.363-.844 1.103 1.103 0 0 0-.833-.363h-8.648V2.758c0-.32-.121-.598-.363-.828A1.128 1.128 0 0 0 12 1.566a1.128 1.128 0 0 0-.844.364c-.23.23-.347.508-.347.828v8.652H2.145c-.325 0-.606.121-.844.363-.235.23-.352.512-.352.844Zm0 0"/></svg>
